img/ng-atl.svg

<svg viewBox="0 0 648 352.8" xmlns="http://www.w3.org/2000/svg"><path d="m0 103.27h18.56l17.58 74.65v-74.65h17.19v128.73h-18.56l-16.93-72.31v72.31h-17.84z" fill="#b62d31"/><path d="m98.47 141.38v-13.12q0-8.66-8.07-8.72h-.13q-8 0-8 8.72v78.74q0 8.72 8.07 8.72t8.13-8.72v-13.27h-7.55v-18.37h26.08v31.64q0 27-26.7 27.09t-26.6-27.09v-78.74q0-27 26.63-27t26.7 27v13.12z" fill="#b62d31"/><path d="m510.76 132.79-13.12 99.21h-18.7l19.15-128.7h25.45l19.1 128.7h-18.76z" fill="#b62d31"/><path d="m593.42 103.27v18.3h-17.42v110.43h-18.53v-110.43h-17.38v-18.3z" fill="#b62d31"/><path d="m599.85 232v-128.73h18.56v110.4h29.59v18.33z" fill="#b62d31"/><g fill="#4c4c4d"><path d="m259.43 99q0-6.25 6.17-10.65 5.53-4 5.55-6.48v-8.49q0-2.16-1.92-2.17-1.95 0-1.95 2.17v6.62h-7.8v-6.62q0-9.9 9.75-9.9t9.77 9.9v8.62q0 6.37-6.19 10.79-5.53 4-5.53 6.72v1.83h11.71v7.72h-19.56z"/><path d="m302.18 99.91q0 9.88-9.77 9.88t-9.75-9.88v-26.53q0-9.9 9.75-9.9t9.77 9.9zm-7.8-26.52q0-2.16-1.95-2.17-1.92 0-1.92 2.17v26.52q0 2.17 1.95 2.17t2-2.17z"/><path d="m319.55 64.19v37.2h5.86v7.72h-19.52v-7.72h5.86v-29.49h-5.86v-7.71z"/><path d="m348.86 79.93v-6.55q0-7.1-4.51-9a13.18 13.18 0 0 0 -5.35-1.25 11.86 11.86 0 0 0 -5.57 1.41q-4.07 2.1-4.07 8.84v6.54q0 4.73 3.18 5.92-3.18 1.41-3.18 6.14v7.89q0 6.52 3.8 8.69a11.48 11.48 0 0 0 5.75 1.22h.53a11.31 11.31 0 0 0 6.19-1.53q3.25-2.32 3.25-8.38v-7.87q0-4.73-3.25-6 3.23-1.34 3.23-6.07zm-7.79 20.07q0 2.17-2 2.17t-1.92-2.17v-6.63q0-2.16 1.92-2.17 1.94 0 1.95 2.17zm0-20q0 2.17-2 2.17t-1.92-2.17v-6.66q0-2.16 1.92-2.17 1.94 0 1.95 2.17z"/><path d="m304.16 0-164.44 58.67 27.79 217.7 136.65 76.43 136.64-76.42 27.79-217.7zm131.44 272.87-131.44 73.52-131.45-73.52-26.87-210.44 158.32-56.49 158.31 56.49z"/><path d="m304.16 14-151.39 54 25.59 200.43 14 7.82 2.32 1.29 21.13 11.82 1.35.76 12.84 7.21 1.9 1.06 12.92 7.22 1.41.79 12.2 6.82 1.91 1.07 20 11.17.34.19 8.76 4.9 2.56 1.45 12.12 6.78 2.78-1.55 2.58-1.44 26.07-14.58 5.13-2.87 11.12-6.22 5.13-2.87 11.12-6.22 5.13-2.87 6.09-3.41 4.6-2.57 6.84-3.83 3.42-1.91 16.68-9.33 5.13-2.87 14-7.83 25.6-200.41zm-92.16 258.3-14.54-8.13v-35.61l14.54-6zm14.75 8.25-9.62-5.38v-54.72l9.62-4zm14.33-50.75h-9.19v-15.44l9.19-3.79zm0 5.13v5.37h-9.19v-5.37zm0 10.5v5.37h-9.19v-5.37zm0 10.5v32.63l-9.19-5.14v-27.48zm-9.19-47.13v-12.32h43.61v18.82h-20.3v81.17l-9-5v-88.57zm33.35-34.14v16.68h-23.08v-16.67zm-14.68-5.13 3.13-7.17 3.13 7.17zm9.76 50.88h15.18v26h-9.19v5.13h9.19v5.37h-9.19v5.09h9.19v5.37h-9.19v5.13h9.19v35.28l-15.18-8.49zm20.31 90.27v-90.26h8.76v95.17zm23.52 13.15-9.62-5.38v-35.45h12.4v39.25zm-9.62-122v-5.37h13v-5.13h-13v-5.37h13v-5.13h-13v-5.37h13v-5.13h-13v-5.37h13v-5.13h-13v-5.67h41v40l-16.24-11.12v132.31l-7.27 4.07v-104.13h-17.49v-8.29h13v-5.13zm14.11-52.83v-9h12.83v9zm26.94 113v4.06h-11.11v-4.06zm-11.11-5.13v-64.08l11.11 7.6v56.5zm11.11 14.32v4.06h-11.11v-4.06zm0 9.19v4.06h-11.11v-4.06zm0 9.19v4.06h-11.11v-4.03zm-28.65-69.18v36.51h-12.4v-36.48zm0 41.61v5.37h-12.4v-5.37zm0 10.5v5.37h-12.4v-5.37zm17.53 39.95v-13.66h11.11v7.48zm16.24-9.09v-99.45l11.12 7.61v85.66zm16.3-9.05v-79.31l11.12 7.61v65.46zm0-85.5v-23.24h32v4.35h-23.06v5.13h23.06v2.95h-23.06v5.13h23.06v2.87h-23.06v5.13h23.06v12.69h-10.23v58.27l-5.56 3.11v-65.27zm32 47.63v2.92h-5.1v-2.92zm-5.13-5.13v-22.31h5.13v22.33zm5.13 13.18v2.92h-5.1v-2.92zm-5.13 8h5.13v3.84l-5.13 2.87zm10.26 1v-44.49h16.68v11.33h-11.52v5.13h11.55v18.74zm23.67-13.24-1.87 1v-37.41h-9v-9.84h-5.13v9.84h-7.7v-43.4h-24.31v-21.27h-5.13v21.27h-12.83v24.86l-11.12-7.61v-48.69h-14.11v-14.1h-23.09v14.1h-14.11v66.28h-8.76v-23.93h-10.26v-21.81h-7.95l-6.16-14.1v-15.44h-5.13v15.4l-6.14 14.14h-8v21.81h-10.24v19.58l-9.62 4v-8.16h-5.14v10.23l-19.67 8.11v36.19l-1.87-1-23.41-183.52 137.1-48.92 137.1 48.92z"/></g></svg>

<svg xmlns="http://www.w3.org/2000/svg" viewBox="0 0 648 352.8"><defs><style>.cls-1{fill:#b62d31;}.cls-2{fill:#4c4c4d;}</style></defs><title>ngATL_logo</title><g id="Layer_2" data-name="Layer 2"><g id="Layer_1-2" data-name="Layer 1"><path class="cls-1" d="M0,103.27H18.56l17.58,74.65V103.27H53.33V232H34.77L17.84,159.69V232H0Z"/><path class="cls-1" d="M98.47,141.38V128.26q0-8.66-8.07-8.72h-.13q-8,0-8,8.72V207q0,8.72,8.07,8.72T98.47,207V193.73H90.92V175.36H117V207q0,27-26.7,27.09T63.7,207V128.26q0-27,26.63-27t26.7,27v13.12Z"/><path class="cls-1" d="M510.76,132.79,497.64,232h-18.7l19.15-128.7h25.45L542.64,232H523.88Z"/><path class="cls-1" d="M593.42,103.27v18.3H576V232H557.47V121.57H540.09v-18.3Z"/><path class="cls-1" d="M599.85,232V103.27h18.56v110.4H648V232Z"/><path class="cls-2" d="M259.43,99q0-6.25,6.17-10.65,5.53-4,5.55-6.48V73.38q0-2.16-1.92-2.17h0q-1.95,0-1.95,2.17V80h-7.8V73.38q0-9.9,9.75-9.9t9.77,9.9V82q0,6.37-6.19,10.79-5.53,4-5.53,6.72v1.83h11.71v7.72H259.43Z"/><path class="cls-2" d="M302.18,99.91q0,9.88-9.77,9.88t-9.75-9.88V73.38q0-9.9,9.75-9.9t9.77,9.9Zm-7.8-26.52q0-2.16-1.95-2.17h0q-1.92,0-1.92,2.17V99.91q0,2.17,1.95,2.17t2-2.17Z"/><path class="cls-2" d="M319.55,64.19v37.2h5.86v7.72H305.89v-7.72h5.86V71.9h-5.86V64.19Z"/><path class="cls-2" d="M348.86,79.93V73.38q0-7.1-4.51-9A13.18,13.18,0,0,0,339,63.13a11.86,11.86,0,0,0-5.57,1.41q-4.07,2.1-4.07,8.84v6.54q0,4.73,3.18,5.92-3.18,1.41-3.18,6.14v7.89q0,6.52,3.8,8.69a11.48,11.48,0,0,0,5.75,1.22h.53a11.31,11.31,0,0,0,6.19-1.53q3.25-2.32,3.25-8.38V92q0-4.73-3.25-6Q348.86,84.66,348.86,79.93ZM341.07,100q0,2.17-2,2.17T337.15,100V93.37q0-2.16,1.92-2.17h0q1.94,0,1.95,2.17Zm0-20q0,2.17-2,2.17T337.15,80V73.34q0-2.16,1.92-2.17h0q1.94,0,1.95,2.17Z"/><path class="cls-2" d="M304.16,0,139.72,58.67l27.79,217.7L304.16,352.8,440.8,276.38l27.79-217.7ZM435.6,272.87,304.16,346.39,172.71,272.87,145.84,62.43,304.16,5.94,462.47,62.43Z"/><path class="cls-2" d="M304.16,14,152.77,68l25.59,200.43,14,7.82h0l2.32,1.29,21.13,11.82,1.35.76h0L230,297.33l1.9,1.06h0l12.92,7.22,1.41.79h0l12.2,6.82,1.91,1.07h0l20,11.17.34.19h0l8.76,4.9h0L292,332l12.12,6.78,2.78-1.55h0l2.58-1.44,26.07-14.58h0l5.13-2.87h0l11.12-6.22h0l5.13-2.87h0l11.12-6.22h0l5.13-2.87h0l6.09-3.41,4.6-2.57h0l6.84-3.83,3.42-1.91h0l16.68-9.33h0l5.13-2.87h0l14-7.83L455.54,68ZM212,272.3l-14.54-8.13V228.56l14.54-6Zm14.75,8.25-9.62-5.38V220.45l9.62-4Zm14.33-50.75h-9.19V214.36l9.19-3.79Zm0,5.13v5.37h-9.19v-5.37Zm0,10.5v5.37h-9.19v-5.37Zm0,10.5v32.63l-9.19-5.14V255.94Zm-9.19-47.13V196.48h43.61v18.82H255.2v81.17l-9-5V202.9Zm33.35-34.14v16.68H242.16V174.67Zm-14.68-5.13,3.13-7.17,3.13,7.17Zm9.76,50.88h15.18v26h-9.19v5.13h9.19v5.37h-9.19V262h9.19v5.37h-9.19v5.13h9.19v35.28l-15.18-8.49Zm20.31,90.27V220.42h8.76v95.17Zm23.52,13.15-9.62-5.38V283h12.4v39.25Zm-9.62-122v-5.37h13v-5.13h-13v-5.37h13v-5.13h-13v-5.37h13v-5.13h-13v-5.37h13v-5.13h-13v-5.67h41v40l-16.24-11.12V315.35l-7.27,4.07V215.29H294.53V207h13v-5.13ZM308.64,149v-9h12.83v9Zm26.94,113v4.06H324.47V262Zm-11.11-5.13V192.79l11.11,7.6v56.5Zm11.11,14.32v4.06H324.47v-4.06Zm0,9.19v4.06H324.47v-4.06Zm0,9.19v4.06H324.47V289.6Zm-28.65-69.18V256.9h-12.4V220.42Zm0,41.61v5.37h-12.4V262Zm0,10.5v5.37h-12.4v-5.37Zm17.53,39.95V298.79h11.11v7.48Zm16.24-9.09V203.91l11.12,7.61v85.66ZM357,294.31V215l11.12,7.61v65.46Zm0-85.5V185.57H389v4.35H365.94v5.13H389V198H365.94v5.13H389V206H365.94v5.13H389v12.69H378.77v58.27l-5.56,3.11V219.93ZM389,256.44v2.92H383.9v-2.92Zm-5.13-5.13V229H389v22.33ZM389,264.49v2.92H383.9v-2.92Zm-5.13,8H389v3.84l-5.13,2.87Zm10.26,1V229h16.68v11.33H399.29v5.13h11.55v18.74Zm23.67-13.24-1.87,1V223.84h-9V214h-5.13v9.84h-7.7v-43.4H369.79V159.17h-5.13v21.27H351.83V205.3l-11.12-7.61V149H326.6V134.9H303.51V149H289.4v66.28h-8.76V191.35H270.38V169.54h-7.95l-6.16-14.1V140h-5.13v15.4L245,169.54H237v21.81H226.76v19.58l-9.62,4v-8.16H212V217l-19.67,8.11V261.3l-1.87-1L167.05,76.78l137.1-48.92,137.1,48.92Z"/></g></g></svg>
